src/icon.svg

<svg fill="none" height="200" viewBox="0 0 200 200" width="200" xmlns="http://www.w3.org/2000/svg" xmlns:xlink="http://www.w3.org/1999/xlink"><linearGradient id="a" gradientUnits="userSpaceOnUse" x1=".000008" x2="200" y1="200" y2="-.000004"><stop offset="0" stop-color="#0a341e"/><stop offset="1" stop-color="#20bf6b"/></linearGradient><path clip-rule="evenodd" d="m0 100c0-100 .397614-100 100.199-100 99.801 0 99.801 0 99.801 100s0 100-99.801 100c-99.801386 0-100.199 0-100.199-100z" fill="url(#a)" fill-rule="evenodd"/><path d="m85.0361 54.2182c23.5379 2.2446 41.9749 23.2645 41.9749 47.8538 0 3.246 2.641 5.886 5.886 5.886h.22c1.043-3.677 1.602-7.555 1.602-11.562v-3.8541c0-5.705 3.118-10.6925 7.737-13.3582l-7.491-19.975c-.748-1.9931.262-4.2146 2.255-4.962 1.993-.748 4.215.2623 4.962 2.2554l7.736 20.6289c.073-.0011.145-.0054.218-.0054s.145.0046.217.0054l7.736-20.6287c.748-1.993 2.97-3.0028 4.962-2.2554 1.993.7472 3.003 2.969 2.256 4.962l-7.491 19.975c4.618 2.6655 7.736 7.653 7.736 13.3583v11.5618c0 23.377-19.018 42.395-42.395 42.395-2.599 0-43.04 0-47.1821 0-.073 0-.1439-.007-.2159-.011-23.0554-.476-41.759-19.284-41.759-42.384v-3.854c0-27.1419 23.5593-48.6531 51.0361-46.0318zm38.1209 84.5728c19.126 0 34.687-15.561 34.687-34.687v-11.5621c0-4.2502-3.458-7.7081-7.708-7.7081-4.251 0-7.709 3.4579-7.709 7.7081v3.8541c0 17.828-9.361 33.512-23.425 42.395zm-81.4489-34.687c0 18.798 15.4018 34.356 34.3333 34.682 15.3493.26 27.8456-12.991 27.8456-27.98v-5.392c0-10.7986-8.2925-20.0183-18.485-20.5525-11.1676-.5856-20.3124 8.283-20.3124 19.2415v3.855c0 4.25 3.4579 7.708 7.7082 7.708s7.7082-3.458 7.7082-7.708v-3.854c0-2.129 1.7256-3.854 3.8541-3.854s3.8541 1.725 3.8541 3.854v3.854c0 8.501-6.9158 15.416-15.4164 15.416s-15.4164-6.915-15.4164-15.416v-3.855c0-15.4193 12.8755-27.7536 28.424-26.9391 14.6486.7677 25.7896 13.7632 25.7896 28.2501v5.392c0 10.192-4.575 20.454-12.9794 27.517 13.8434-2.068 25.5204-10.854 31.5984-22.924-6.215-1.249-10.911-6.749-10.911-13.327 0-20.6596-15.373-38.3093-34.9987-40.1809-23.4179-2.2312-42.5962 16.2324-42.5962 38.3589z" fill="#fff"/></svg>

<svg width="200" height="200" viewBox="0 0 200 200" fill="none" xmlns="http://www.w3.org/2000/svg">
<g id="icon">
<path id="Combined-Shape" fill-rule="evenodd" clip-rule="evenodd" d="M0 100C0 0 0.397614 0 100.199 0C200 0 200 0 200 100C200 200 200 200 100.199 200C0.397614 200 0 200 0 100Z" fill="url(#paint0_linear_0:2)"/>
<path id="Vector" d="M85.0361 54.2182C108.574 56.4628 127.011 77.4827 127.011 102.072C127.011 105.318 129.652 107.958 132.897 107.958H133.117C134.16 104.281 134.719 100.403 134.719 96.396V92.5419C134.719 86.8369 137.837 81.8494 142.456 79.1837L134.965 59.2087C134.217 57.2156 135.227 54.9941 137.22 54.2467C139.213 53.4987 141.435 54.509 142.182 56.5021L149.918 77.131C149.991 77.1299 150.063 77.1256 150.136 77.1256C150.209 77.1256 150.281 77.1302 150.353 77.131L158.089 56.5023C158.837 54.5093 161.059 53.4995 163.051 54.2469C165.044 54.9941 166.054 57.2159 165.307 59.2089L157.816 79.1839C162.434 81.8494 165.552 86.8369 165.552 92.5422V104.104C165.552 127.481 146.534 146.499 123.157 146.499C120.558 146.499 80.117 146.499 75.9749 146.499C75.9019 146.499 75.831 146.492 75.759 146.488C52.7036 146.012 34 127.204 34 104.104V100.25C34 73.1081 57.5593 51.5969 85.0361 54.2182ZM123.157 138.791C142.283 138.791 157.844 123.23 157.844 104.104V92.5419C157.844 88.2917 154.386 84.8338 150.136 84.8338C145.885 84.8338 142.427 88.2917 142.427 92.5419V96.396C142.427 114.224 133.066 129.908 119.002 138.791H123.157ZM41.7081 104.104C41.7081 122.902 57.1099 138.46 76.0414 138.786C91.3907 139.046 103.887 125.795 103.887 110.806V105.414C103.887 94.6154 95.5945 85.3957 85.402 84.8615C74.2344 84.2759 65.0896 93.1445 65.0896 104.103V107.958C65.0896 112.208 68.5475 115.666 72.7978 115.666C77.0481 115.666 80.506 112.208 80.506 107.958V104.104C80.506 101.975 82.2316 100.25 84.3601 100.25C86.4886 100.25 88.2142 101.975 88.2142 104.104V107.958C88.2142 116.459 81.2984 123.374 72.7978 123.374C64.2972 123.374 57.3814 116.459 57.3814 107.958V104.103C57.3814 88.6837 70.2569 76.3494 85.8054 77.1639C100.454 77.9316 111.595 90.9271 111.595 105.414V110.806C111.595 120.998 107.02 131.26 98.6156 138.323C112.459 136.255 124.136 127.469 130.214 115.399C123.999 114.15 119.303 108.65 119.303 102.072C119.303 81.4124 103.93 63.7627 84.3043 61.8911C60.8864 59.6599 41.7081 78.1235 41.7081 100.25V104.104Z" fill="white"/>
</g>
<defs>
<linearGradient id="paint0_linear_0:2" x1="8.14348e-06" y1="200" x2="200" y2="-3.77744e-06" gradientUnits="userSpaceOnUse">
<stop stop-color="#0A341E"/>
<stop offset="1" stop-color="#20BF6B"/>
</linearGradient>
</defs>
</svg>
